images/usecases/health-care/factories-2.svg

<svg width="285" height="210" viewBox="0 0 285 210" fill="none" xmlns="http://www.w3.org/2000/svg">
<path d="M106.75 115.467C106.75 70.0419 143.575 33.2173 189 33.2173C234.425 33.2173 271.25 70.0419 271.25 115.467C271.25 160.893 234.425 197.717 189 197.717C143.575 197.717 106.75 160.893 106.75 115.467Z" stroke="#3E9AF8" stroke-width="1.5"/>
<path d="M143 161.041H148.596H235" stroke="#3E9AF8" stroke-width="4.55258" stroke-linecap="round"/>
<path d="M192.888 160.946H195.164V158.669V100.434C195.164 96.6629 192.107 93.6055 188.336 93.6055H155.709C151.937 93.6055 148.88 96.6629 148.88 100.434V158.669V160.946H151.156H192.888Z" stroke="#3E9AF8" stroke-width="4.55258"/>
<path d="M149.639 122.343H162.063M195.164 117.98L228.36 131.543V141.692" stroke="#3E9AF8" stroke-width="4.55258" stroke-linecap="round" stroke-linejoin="round"/>
<path d="M149.639 129.078H172.496" stroke="#3E9AF8" stroke-width="4.55258" stroke-linecap="round"/>
<path d="M188.905 93.4158V76.723C188.905 74.2087 186.867 72.1704 184.353 72.1704H159.883C157.368 72.1704 155.33 74.2087 155.33 76.723V93.4158" stroke="#3E9AF8" stroke-width="4.55258"/>
<rect x="163.296" y="79.5684" width="17.6412" height="6.25979" rx="2.27629" stroke="#3E9AF8" stroke-width="3.79381"/>
<path d="M217.359 160.946H219.636V158.669V142.356C219.636 140.47 218.107 138.941 216.221 138.941H207.496C205.61 138.941 204.081 140.47 204.081 142.356V158.669V160.946H206.357H217.359Z" stroke="#3E9AF8" stroke-width="4.55258"/>
<path d="M217.359 125.663V97.9682C217.359 97.3396 216.85 96.8301 216.221 96.8301H207.496C206.867 96.8301 206.357 97.3396 206.357 97.9682V121.513" stroke="#3E9AF8" stroke-width="4.55258"/>
<path d="M206.357 115.61H217.359M206.357 106.125H217.359" stroke="#3E9AF8" stroke-width="4.55258" stroke-linecap="round"/>
<path d="M230.637 151.651C230.637 152.908 229.617 153.927 228.36 153.927C227.103 153.927 226.084 152.908 226.084 151.651C226.084 150.394 227.103 149.375 228.36 149.375C229.617 149.375 230.637 150.394 230.637 151.651Z" fill="#3E9AF8"/>
<path fill-rule="evenodd" clip-rule="evenodd" d="M207.41 70.0168C208.6 69.6105 209.894 70.2457 210.3 71.4354C211.857 75.996 210.987 79.4478 210.267 82.0298C209.511 84.7401 209.288 85.6899 210.052 86.8615C210.739 87.9145 210.442 89.3249 209.389 90.0116C208.336 90.6984 206.926 90.4014 206.239 89.3484C204.295 86.3676 205.131 83.4414 205.754 81.258C205.798 81.1039 205.841 80.9534 205.882 80.807C206.537 78.457 207.09 76.1232 205.991 72.9065C205.585 71.7168 206.22 70.423 207.41 70.0168Z" fill="#3E9AF8"/>
<path fill-rule="evenodd" clip-rule="evenodd" d="M215.187 70.0168C216.377 69.6105 217.671 70.2457 218.077 71.4354C219.634 75.996 218.764 79.4478 218.044 82.0298C217.289 84.7401 217.065 85.6899 217.83 86.8615C218.516 87.9145 218.219 89.3249 217.166 90.0116C216.113 90.6984 214.703 90.4014 214.016 89.3484C212.072 86.3676 212.908 83.4414 213.531 81.258C213.575 81.1039 213.618 80.9534 213.659 80.807C214.314 78.457 214.867 76.1232 213.769 72.9065C213.363 71.7168 213.998 70.423 215.187 70.0168Z" fill="#3E9AF8"/>
<path d="M187.551 0.467285V16.4673" stroke="#3E9AF8" stroke-width="1.5"/>
<line y1="-0.75" x2="70.773" y2="-0.75" transform="matrix(1 -4.37905e-08 -4.36321e-08 -1 21.2305 111.178)" stroke="#3E9AF8" stroke-width="1.5"/>
<path d="M188.232 15.461C175.49 15.429 162.866 17.9157 151.085 22.7788C139.304 27.6418 128.596 34.7857 119.575 43.801C110.554 52.8164 103.397 63.5262 98.5137 75.317C93.6306 87.1078 91.1175 99.7478 91.1183 112.513L92.4658 112.513C92.465 99.9253 94.9431 87.461 99.7582 75.8343C104.573 64.2075 111.631 53.6467 120.526 44.7567C129.422 35.8667 139.981 28.8223 151.598 24.0269C163.216 19.2314 175.663 16.7793 188.228 16.8108L188.232 15.461Z" fill="#3E9AF8"/>
<path d="M10.6159 121.949C16.0635 121.949 20.4819 117.524 20.4819 112.063C20.4819 106.603 16.0635 102.178 10.6159 102.178C5.16842 102.178 0.75 106.603 0.75 112.063C0.75 117.524 5.16842 121.949 10.6159 121.949Z" fill="#F4F8FE" stroke="#3E9AF8" stroke-width="1.5"/>
</svg>

<svg width="285" height="210" fill="none" xmlns="http://www.w3.org/2000/svg"><path d="M106.75 115.467c0-45.425 36.825-82.25 82.25-82.25s82.25 36.825 82.25 82.25c0 45.426-36.825 82.25-82.25 82.25s-82.25-36.824-82.25-82.25Z" stroke="#3E9AF8" stroke-width="1.5"/><path d="M143 161.041h92" stroke="#3E9AF8" stroke-width="4.553" stroke-linecap="round"/><path d="M192.888 160.946h2.276v-60.512a6.828 6.828 0 0 0-6.828-6.828h-32.627a6.829 6.829 0 0 0-6.829 6.828v60.512H192.888Z" stroke="#3E9AF8" stroke-width="4.553"/><path d="M149.639 122.343h12.424m33.101-4.363 33.196 13.563v10.149" stroke="#3E9AF8" stroke-width="4.553" stroke-linecap="round" stroke-linejoin="round"/><path d="M149.639 129.078h22.857" stroke="#3E9AF8" stroke-width="4.553" stroke-linecap="round"/><path d="M188.905 93.416V76.723a4.552 4.552 0 0 0-4.552-4.553h-24.47a4.553 4.553 0 0 0-4.553 4.553v16.693" stroke="#3E9AF8" stroke-width="4.553"/><rect x="163.296" y="79.568" width="17.641" height="6.26" rx="2.276" stroke="#3E9AF8" stroke-width="3.794"/><path d="M217.359 160.946h2.277v-18.59a3.415 3.415 0 0 0-3.415-3.415h-8.725a3.415 3.415 0 0 0-3.415 3.415v18.59h13.278ZM217.359 125.663V97.968c0-.628-.509-1.138-1.138-1.138h-8.725c-.629 0-1.139.51-1.139 1.138v23.545" stroke="#3E9AF8" stroke-width="4.553"/><path d="M206.357 115.61h11.002m-11.002-9.485h11.002" stroke="#3E9AF8" stroke-width="4.553" stroke-linecap="round"/><path d="M230.637 151.651a2.277 2.277 0 1 1-4.554-.002 2.277 2.277 0 0 1 4.554.002Z" fill="#3E9AF8"/><path fill-rule="evenodd" clip-rule="evenodd" d="M207.41 70.017a2.276 2.276 0 0 1 2.89 1.418c1.557 4.561.687 8.013-.033 10.595-.756 2.71-.979 3.66-.215 4.832a2.276 2.276 0 1 1-3.813 2.486c-1.944-2.98-1.108-5.907-.485-8.09l.128-.451c.655-2.35 1.208-4.684.109-7.9a2.276 2.276 0 0 1 1.419-2.89ZM215.187 70.017a2.276 2.276 0 0 1 2.89 1.418c1.557 4.561.687 8.013-.033 10.595-.755 2.71-.979 3.66-.214 4.832a2.277 2.277 0 0 1-3.814 2.486c-1.944-2.98-1.108-5.907-.485-8.09l.128-.451c.655-2.35 1.208-4.684.11-7.9a2.277 2.277 0 0 1 1.418-2.89Z" fill="#3E9AF8"/><path d="M187.551.467v16" stroke="#3E9AF8" stroke-width="1.5"/><path transform="matrix(1 0 0 -1 21.23 111.178)" stroke="#3E9AF8" stroke-width="1.5" d="M0-.75h70.773"/><path d="M188.232 15.461a96.718 96.718 0 0 0-37.147 7.318 96.86 96.86 0 0 0-31.51 21.022 97.064 97.064 0 0 0-21.061 31.516 97.198 97.198 0 0 0-7.396 37.196h1.348a95.847 95.847 0 0 1 7.292-36.679 95.71 95.71 0 0 1 20.768-31.077 95.52 95.52 0 0 1 31.072-20.73 95.374 95.374 0 0 1 36.63-7.216l.004-1.35Z" fill="#3E9AF8"/><path d="M10.616 121.949c5.448 0 9.866-4.425 9.866-9.886 0-5.46-4.418-9.885-9.866-9.885-5.448 0-9.866 4.425-9.866 9.885 0 5.461 4.418 9.886 9.866 9.886Z" fill="#F4F8FE" stroke="#3E9AF8" stroke-width="1.5"/></svg>
